!!!!SEGMENT: pl-wtm--r-1012_kurpinski-karol-kazimierz--spiew-elizetty.krn
!!!cenid: 18xx:2162
!!!COM: Kurpiński, Karol Kazimierz
!!!COM-rismID: pe30018952
!!!CDT: 1785/03/06-1857/09/18
!!!CNT: Polish
!!!OTL: Śpiew Elizetty
!!!PDT: 1840
!!!AGN: Secular
!!!OMD: Poco allegretto
!!!SMS-siglum: PL-Wtm
!!!SMS-shelfmark: R 1012
!!!SMS-shelfwork: W
!!!SMS-variant:
!!!SMS-altvar:
!!!NIFC-rismSourceID: 1001087627
!!!NIFC-islandoraID:
!!!URL-pdf-islandora:
!!!URL-scan:
!!!ONB-nifc:
!!!AIN: 1 empty 1 forte 1 vox
!!!key:
**kern	**kern	**dynam	**kern	**text
*part3	*part2	*part2	*part1	*part1
*staff3	*staff2	*	*staff1	*staff1
*Iempty	*Iforte	*	*Ivox	*
*	*I"Fortepian	*	*I"Głos	*
*clefF4	*clefG2	*	*clefG2	*
*k[f#c#g#d#]	*k[f#c#g#d#]	*	*k[f#c#g#d#]	*
*E:	*E:	*	*E:	*
*M6/8	*M6/8	*	*M6/8	*
*>[A,B,B,C]	*>[A,B,B,C]	*	*>[A,B,B,C]	*
=1	=1	=1	=1	=1
*>A	*>A	*	*>A	*
*all\right	*all\right	*	*all\right	*
*tremolo	*	*	*	*
!	!	!LO:DY:b=2:rj	!	!
16G#\LL 16E\	4r	f	2.r	.
16B\	.	.	.	.
16G#\ 16E\	.	.	.	.
16B\	.	.	.	.
16G#\ 16E\	8r	.	.	.
16B\JJ	.	.	.	.
16G#\LL 16E\	(>8b\L	.	.	.
16B\	.	.	.	.
16G#\ 16E\	16bb\Jk 16gg#\)	.	.	.
16B\	16r	.	.	.
16G#\ 16E\	16bb\ 16gg#\	.	.	.
16B\JJ	16r	.	.	.
=2	=2	=2	=2	=2
16F#\LL 16D#\ 16BB\	4.aa\ 4.ff#^<\	.	2.r	.
16B\	.	.	.	.
16F#\ 16D#\ 16BB\	.	.	.	.
16B\	.	.	.	.
16F#\ 16D#\ 16BB\	.	.	.	.
16B\JJ	.	.	.	.
*rep	*	*	*	*
16F#\LL 16D#\ 16BB\	(8b\L	.	.	.
16B\	.	.	.	.
16F#\ 16D#\ 16BB\	16aa\Jk 16ff#\)	.	.	.
16B\	16r	.	.	.
16F#\ 16D#\ 16BB\	16aa\ 16ff#\	.	.	.
16B\JJ	16r	.	.	.
*Xrep	*	*	*	*
=3	=3	=3	=3	=3
!	!	!	!	!LO:TX:a:t=Spiew Elizetty w Operze małżeństwo tajemne
16E\LL 16C#\	4.gg#\ 4.ee^<\	.	2.r	.
16G#\	.	.	.	.
16E\ 16C#\	.	.	.	.
16G#\	.	.	.	.
16E\ 16C#\	.	.	.	.
16G#\JJ	.	.	.	.
16F#\LL 16AA\	(8aa\L 8ff#\	.	.	.
16A\	.	.	.	.
16F#\ 16AA\	8fff#\)	.	.	.
16A\	.	.	.	.
16F#\ 16AA\	8fff#\J 8aa\ 8ff#\	.	.	.
16A\JJ	.	.	.	.
=4	=4	=4	=4	=4
16G#\LL 16E\ 16BB\	(8gg#\L 8ee\	.	2.r	.
16B\	.	.	.	.
16G#\ 16E\ 16BB\	8eee\)	.	.	.
16B\	.	.	.	.
16G#\ 16E\ 16BB\	8eee\J 8gg#\ 8ee'\	.	.	.
16B\JJ	.	.	.	.
16F#\LL 16D#\ 16BB\	(8ff#\L 8dd#\ 8b\	.	.	.
16B\	.	.	.	.
16F#\ 16D#\ 16BB\	8bb\)	.	.	.
16B\	.	.	.	.
16F#\ 16D#\ 16BB\	8bb\J 8ff#\ 8dd#\ 8b'\	.	.	.
!	!	!	!LO:TX:t=[segno]	!
16B\JJ	.	.	.	.
*Xtremolo	*	*	*	*
=5||	=5||	=5||	=5||	=5||
*>B	*>B	*	*>B	*
4E/ 4EE/	8r	.	2.r	.
!	!	!LO:DY:rj	!	!
.	8g#/L 8e/ 8B/	p	.	.
8r	8g#/J 8e/ 8B/	.	.	.
4E/ 4EE/	8r	.	.	.
*	*tremolo	*	*	*
.	8g#/L 8e/ 8B/	.	.	.
8r	8g#/J 8e/ 8B/	.	.	.
=6	=6	=6	=6	=6
4E/ 4EE/	8r	.	4r	.
.	8g#/L 8e/ 8B/	.	.	.
8r	8g#/J 8e/ 8B/	.	8r	.
4E/ 4EE/	8r	.	8r	.
.	8g#/L 8e/ 8B/	.	8e/	To
8r	8g#/J 8e/ 8B/	.	8f#/	jest
=7	=7	=7	=7	=7
*rep	*rep	*	*	*
4E/ 4EE/	8r	.	4g#/	praw-
.	8g#/L 8e/ 8B/	.	.	.
8r	8g#/J 8e/ 8B/	.	8g#/	-da
4E/ 4EE/	8r	.	8g#/L	że
.	.	.	16qqg#/LL	.
.	.	.	16qqf#/JJ	.
.	8g#/L 8e/ 8B/	.	8f#/J	.
8r	8g#/J 8e/ 8B/	.	8g#/	tu
*Xrep	*Xrep	*	*	*
=8	=8	=8	=8	=8
4F#/ 4FF#/	8r	.	4b/	w do-
.	8f#/L 8c#/ 8A/	.	.	.
8r	8f#/J 8c#/ 8A/	.	8a/	-mu
4F#/ 4FF#/	8r	.	8r	.
.	8f#/L 8c#/ 8A/	.	8cc#\	Je-
8r	8f#/J 8c#/ 8A/	.	8cc#\	-stem
=9	=9	=9	=9	=9
!LO:TX:b:t=8	!	!	!	!
4D#\ 4DD#\yy	8r	.	4cc#\	Pa-
.	8a/L 8f#/ 8B/	.	.	.
8r	8a/J 8f#/ 8B/	.	8b\	-nią
4D#\ 4DD#\yy	8r	.	4cc#\	wie-
.	8a/L 8f#/ 8B/	.	.	.
8r	8a/J 8f#/ 8B/	.	8a\	-lo-
=10	=10	=10	=10	=10
4E\ 4EE\yy	8r	.	16b\LL	-wła-
.	.	.	16ee\	.
.	8g#/L 8e/ 8B/	.	16dd#\	.
.	.	.	16ee\JJ	.
8r	8g#/J 8e/ 8B/	.	8b\	-dną
4E\ 4EE\yy	8r	.	8r	.
.	8g#/L 8e/ 8B/	.	8ee\	Każ-
8r	8g#/J 8e/ 8B/	.	8ee\	-dy
!!LO:LB:g=original
=11	=11	=11	=11	=11
!LO:TX:b:t=8	!	!	!	!
4F#\ 4FF#\yy	8r	.	4f#/	mnie
.	8f#/L 8e/ 8c#/ 8A#X/	.	.	.
8r	8f#/J 8e/ 8c#/ 8A#/	.	8g#/	tu
4F#\ 4FF#\yy	8r	.	8a#X/L	mie-
!	!	!	!LO:TX:t=c	!
.	8f#/L 8e/ 8c#/ 8A#/	.	8b/J	.
8r	8f#/J 8e/ 8c#/ 8A#/	.	8cc#/	-ni
*	*Xtremolo	*	*	*
=12	=12	=12	=12	=12
4BB/ 4BBB/yy	8r	.	4cc##X\	ład-
.	8f#/L 8d#/ 8B/	.	.	.
8r	8b/J 8d#/ 8B/	.	16dd#\	-ną
.	.	.	16r	.
4E\ 4EE\yy	8r	.	8dd#\L	nie
*	*tremolo	*	*	*
.	8g#/L 8e/ 8c#/	.	8ee\J	.
8r	8g#/J 8e/ 8c#/	.	8g#/	na-
=13	=13	=13	=13	=13
4F#\ 4FF#\yy	8r	.	4b/	-przy-
.	8b/L 8f#/ 8d#/	.	.	.
8r	8b/J 8f#/ 8d#/	.	8f#/	-krzy
*	*Xtremolo	*	*	*
!	!	!	!LO:TX:t=P:problem=mixed beam	!
4.F#\ 4.FF#;\	4.a#X/ 4.e/ 4.c#;/	.	8f#/L	się
.	.	.	32qqg#/LLL	.
.	.	.	64qqf#/L	.
.	.	.	64qqe#X/	.
.	.	.	64qqf#/JJJJ	.
.	.	.	8dd#;\J	.
.	.	.	8cc#\	ni-
=14	=14	=14	=14	=14
8B\L 8BB\	8b/ 8d#/	.	32cc#\LLL	-ko-
.	.	.	32b\	.
.	.	.	32dd#\	.
.	.	.	32cc#\JJJ	.
8B\ 8BB\	8r	.	8b\	-mu
8B\J 8BB\	8r	.	8r	.
8B\L 8BB\	4bb\ 4b\	.	4r	.
8B\ 8BB\	.	.	.	.
8B\J 8BB\	8bb\	.	8r	.
=15	=15	=15	=15	=15
*^	*	*	*	*
*tremolo	*	*	*	*	*
16A/LL 16F#/	4.D#\	(8bb\L	.	2.r	.
16B/	.	.	.	.	.
.	.	16qqddd#/	.	.	.
16A/ 16F#/	.	16ccc#\Jk)	.	.	.
16B/	.	16r	.	.	.
16A/ 16F#/	.	16bb\	.	.	.
16B/JJ	.	16r	.	.	.
16A/LL 16F#/	4.BB\	(8bb\L	.	.	.
16B/	.	.	.	.	.
.	.	16qqddd#/	.	.	.
16A/ 16F#/	.	16ccc#\Jk)	.	.	.
16B/	.	16r	.	.	.
16A/ 16F#/	.	16bb\	.	.	.
16B/JJ	.	16r	.	.	.
*v	*v	*	*	*	*
=16	=16	=16	=16	=16
16G#\LL 16E\	(8bb\L	.	4r	.
16B\	.	.	.	.
16G#\ 16E\	16ggg#\Jk)	.	.	.
16B\	16r	.	.	.
16G#\ 16E\	16eee\ 16ee\	.	8r	.
16B\JJ	16r	.	.	.
*rep	*	*	*	*
16G#\LL 16E\	4bb\ 4b\	.	4b/	Za-
16B\	.	.	.	.
16G#\ 16E\	.	.	.	.
16B\	.	.	.	.
16G#\ 16E\	8r	.	8b/	-trud-
16B\JJ	.	.	.	.
*Xrep	*	*	*	*
*Xtremolo	*	*	*	*
=17	=17	=17	=17	=17
*	*tremolo	*	*	*
4D#\	16a/LL 16f#/	.	8b/L	-nie-
.	16B/	.	.	.
.	.	.	16qqdd#/	.
.	16a/ 16f#/	.	8cc#/J	.
.	16B/	.	.	.
8r	16a/ 16f#/	.	8b/	-nie
.	16B/JJ	.	.	.
4BB/ 4BBB/	16a/LL 16f#/ 16d#/	.	8b/L	zdro-
.	16B/	.	.	.
.	.	.	16qqdd#/	.
.	16a/ 16f#/ 16d#/	.	8cc#/J	.
.	16B/	.	.	.
8r	16a/ 16f#/ 16d#/	.	8b/	-wie
.	16B/JJ	.	.	.
=18	=18	=18	=18	=18
4E/ 4EE/	(16g#/LL 16e/	.	(8b\L	krze-
.	16B/	.	.	.
.	16g#/ 16e/	.	8gg#\	.
.	16B/	.	.	.
8r	16g#/ 16e/	.	8ee\J)	.
.	16B/JJ	.	.	.
*	*Xtremolo	*	*	*
4G#\ 4GG#\	16g#/LL 16e/	.	(4b\	-pi
.	16B/	.	.	.
.	16g#/ 16e/	.	.	.
.	16B/)	.	.	.
8r	16g#/JJ 16e/	.	8b#X\)	.
.	16r	.	.	.
!!LO:LB:g=original
=19	=19	=19	=19	=19
8r	8r	.	8r	.
8A\ 8AA\	8cc#/ 8f#/ 8c#/	.	16cc#\	a-
.	.	.	16cc#\	-le...
8r;	8r;	.	8r;	.
!	!	!	!LO:TX:a:t=Poco lento	!
4.A#X\	4.cc#/ 4.gn/ 4.e/	.	8cc#\L	a-
.	.	.	8dd#\J	.
.	.	.	8ee\	-le
=20	=20	=20	=20	=20
*	*^	*	*	*
4.B\	4.b/ 4.g#X/ 4.e/	4.ryy	.	4ee\	z mę-
.	.	.	.	8g#/	-żem
4B\	8b/L	4.f#\ 4.d#\	.	8b/L	za-
.	8a#X/	.	.	8a#X/J	.
8B#X\	8an/J	.	.	8an/	-wsze
*	*v	*v	*	*	*
=21	=21	=21	=21	=21
*	*	*^	*	*
4.c#\	4.g#/ 4.e/	.	.	8a/	le-
.	.	.	.	8g#/	-piej
.	.	.	.	8r	.
!	!	!LO:DY:rj	!LO:DY:b=2:rj	!LO:TX:a:i:t=Tempo Imo	!
8A\L 8AA\	8ee\L 8cc#\	f	f	8ee\L	a-
8A\ 8AA\	8dd#\ 8b\	.	.	8dd#\J	.
8A\J 8AA\	8cc#\J 8a\	.	.	8cc#\	-le
*	*	*v	*v	*	*
=22	=22	=22	=22	=22
8B\L 8BB\	8b\L 8g#\	.	8b\L	z mę-
8B\ 8BB\	8gg#\ 8b\	.	8gg#\J	.
8B\J 8BB\	8ee\J 8g#\	.	8ee\	-żem
4B\ 4F#\ 4D#\ 4BB\	4bb\ 4ff#\ 4dd#\ 4a\	.	4b;\	za-
8r;	8r;	.	8d#/	-wsze
=23	=23	=23	=23	=23
*tremolo	*	*	*	*
!	!	!LO:DY:rj	!	!
16G#\LL 16E\	4r	f	8e/	le-
16B\	.	.	.	.
16G#\ 16E\	.	.	8e/	-piej
16B\	.	.	.	.
16G#\ 16E\	8r	.	8r	.
16B\JJ	.	.	.	.
*rep	*	*	*	*
16G#\LL 16E\	(8b\L	.	4r	.
16B\	.	.	.	.
16G#\ 16E\	16bb\Jk 16gg#\)	.	.	.
16B\	16r	.	.	.
16G#\ 16E\	16bb\ 16gg#\	.	8r	.
16B\JJ	16r	.	.	.
*Xrep	*	*	*	*
=24	=24	=24	=24	=24
16F#\LL 16D#\ 16BB\	4.aa\ 4.ff#^<\	.	2.r	.
16B\	.	.	.	.
16F#\ 16D#\ 16BB\	.	.	.	.
16B\	.	.	.	.
16F#\ 16D#\ 16BB\	.	.	.	.
16B\JJ	.	.	.	.
*rep	*	*	*	*
16F#\LL 16D#\ 16BB\	(8b\L	.	.	.
16B\	.	.	.	.
16F#\ 16D#\ 16BB\	16aa\Jk 16ff#\)	.	.	.
16B\	16r	.	.	.
16F#\ 16D#\ 16BB\	16aa\ 16ff#\	.	.	.
16B\JJ	16r	.	.	.
*Xrep	*	*	*	*
=25	=25	=25	=25	=25
16E\LL 16C#\	4.gg#\ 4.ee^<\	.	2.r	.
16G#\	.	.	.	.
16E\ 16C#\	.	.	.	.
16G#\	.	.	.	.
16E\ 16C#\	.	.	.	.
16G#\JJ	.	.	.	.
16F#\LL 16AA\	(8aa\L 8ff#\	.	.	.
16A\	.	.	.	.
16F#\ 16AA\	8fff#\)	.	.	.
16A\	.	.	.	.
16F#\ 16AA\	8fff#\J 8aa\ 8ff#\	.	.	.
16A\JJ	.	.	.	.
=26	=26	=26	=26	=26
16G#\LL 16E\ 16BB\	(8ee\L	.	2.r	.
16B\	.	.	.	.
16G#\ 16E\ 16BB\	8eee\)	.	.	.
16B\	.	.	.	.
16G#\ 16E\ 16BB\	8eee\J 8gg#\ 8ee'\	.	.	.
16B\JJ	.	.	.	.
16F#\LL 16D#\ 16BB\	(8ff#\L 8dd#\ 8b\	.	.	.
16B\	.	.	.	.
16F#\ 16D#\ 16BB\	8bb\)	.	.	.
16B\	.	.	.	.
!	!LO:TX:a:i:t=dal\nSegno.	!	!	!
16F#\ 16D#\ 16BB\	8bb\J 8ff#\ 8dd#\ 8b'\	.	.	.
!	!	!	!LO:TX:t=[segno]	!
16B\JJ	.	.	.	.
*Xtremolo	*	*	*	*
!!LO:LB:g=original
=27||	=27||	=27||	=27||	=27||
*>C	*>C	*	*>C	*
!	!LO:TX:a:i:t=Koniec	!	!	!
4E/ 4BB/ 4GG#/ 4EE/	4ee\ 4b\ 4g#\ 4e\	.	2.r	.
8r	8r	.	.	.
4r	4r	.	.	.
!LO:TX:b:i:t=Śpiew zkomponowany prze Karola Kurpinskiego\ndla Pauliny Riwoli, spiewaczki opery\nw Warszawie._	!	!	!	!
8r	8r	.	.	.
==	==	==	==	==
*-	*-	*-	*-	*-
!!!system-decoration: {(s1,<s2,s3>)}
!!!RDF**kern: > = above
!!!RDF**kern: < = below
!!!EED: Andrzej Borzym
!!!EEV: 2021-05-28
!!!ENC: Krzysztof Stępień
!!!END: 2021-05-14
